icons/beeceptor-dark.svg

<svg width="256" height="256" viewBox="0 0 256 256" fill="none" xmlns="http://www.w3.org/2000/svg">
<path d="M196 0H60C26.8629 0 0 26.8629 0 60V196C0 229.137 26.8629 256 60 256H196C229.137 256 256 229.137 256 196V60C256 26.8629 229.137 0 196 0Z" fill="#282828"/>
<path fill-rule="evenodd" clip-rule="evenodd" d="M179.973 33.2027C185.883 31.3507 191.685 31.6391 197.38 34.0572C201.652 35.6208 206.033 38.4383 210.517 42.4927C214.291 46.1262 217.352 49.7554 219.702 53.3868C222.479 58.2315 223.904 62.6831 223.974 66.7375C224.19 71.1549 223.049 75.3524 220.557 79.3405C218.777 82.2605 216.177 85.1101 212.76 87.8849C208.488 91.3027 203.006 94.5432 196.312 97.6063C188.765 100.81 179.866 103.551 169.61 105.83C165.765 106.614 162.172 107.253 158.823 107.753C166.015 110.314 172.53 113.948 178.368 118.647C183.638 122.99 188.017 128.368 191.503 134.777C194.566 140.542 196.596 146.63 197.593 153.038C199.729 166.214 199.018 177.642 195.457 187.325C194.389 190.1 193.178 192.486 191.826 194.481C195.741 198.683 198.198 202.098 199.195 204.736C199.693 206.229 199.729 207.227 199.302 207.723C198.805 208.152 197.807 208.081 196.312 207.509C193.751 206.655 190.437 204.343 186.381 200.567L186.061 200.78C183.711 202.632 181.361 203.914 179.011 204.627C176.378 205.554 173.885 206.05 171.535 206.121C167.333 206.191 162.777 205.198 157.864 203.134C154.519 201.637 151.031 199.571 147.399 196.94C142.557 193.451 137.466 188.75 132.126 182.841C125.361 175.076 119.452 166.75 114.396 157.847C112.474 154.429 110.551 150.55 108.629 146.207C108.629 152.474 107.631 160.412 105.64 170.025C103.434 179.921 100.655 188.786 97.3096 196.617C94.4621 203.166 91.2217 208.686 87.5903 213.172C85.0974 216.305 82.25 218.832 79.0459 220.757C75.1304 223.318 70.8582 224.495 66.2292 224.277C61.8865 223.923 57.5417 222.391 53.1968 219.689C50.4199 218.121 46.7885 215.058 42.3027 210.502C38.1715 205.875 35.3603 201.462 33.8651 197.26C31.6585 191.631 31.4107 185.828 33.1174 179.851C34.4696 174.865 37.4964 169.666 42.1959 164.255C45.7568 160.196 50.3131 156.104 55.8648 151.972C64.3388 145.705 75.6623 139.122 89.8289 132.213L91.0038 131.575H90.6855C84.5613 130.648 78.8664 127.657 73.5966 122.601C70.463 119.256 67.936 115.659 66.0113 111.816C63.6616 106.405 62.6299 101.24 62.9161 96.3289L63.0229 95.4745C60.1755 93.552 57.2191 92.8385 54.1581 93.3384C53.874 93.2679 53.5536 93.2999 53.1968 93.4431C52.556 93.6609 52.1993 93.7635 52.1288 93.7635L50.4199 94.1928C50.1358 94.3338 49.2813 94.7269 47.8566 95.3656C46.7885 96.079 45.8636 96.5041 45.0796 96.6472L44.2273 96.7562C44.0842 96.6152 44.0116 96.3311 44.0116 95.9017C44.0116 95.0473 44.3683 93.8746 45.0796 92.3771C45.7909 91.3796 46.5749 90.4589 47.4315 89.6023C47.502 89.5319 48.1791 89.0299 49.4586 88.1049C50.0311 87.7503 50.4562 87.5004 50.7424 87.3573C51.3128 87.0027 51.8105 86.7891 52.2377 86.7186C54.0171 86.2187 55.2624 85.9346 55.9759 85.8642H60.2481C61.8865 86.1483 63.3818 86.5733 64.7339 87.1458C65.5179 84.9392 67.0837 82.126 69.4334 78.7103C71.64 75.6472 74.0965 73.1522 76.8029 71.234C78.5118 70.0207 79.8982 69.2025 80.9662 68.7774C80.2549 66.1415 80.3254 63.5418 81.182 60.9807C81.8933 58.349 83.1023 56.1744 84.8133 54.4634C87.0904 52.0432 89.6559 50.7637 92.5033 50.6205C93.9281 50.55 95.0667 50.7615 95.9211 51.2592L96.4551 51.7933L96.03 52.5452C95.8869 52.7588 95.1756 53.3633 93.8939 54.3609C91.9714 56.2129 90.7261 57.706 90.1557 58.8467C88.5152 61.4079 88.0559 64.0075 88.7673 66.6435C92.7554 66.2141 96.7777 66.7481 100.836 68.2455C104.752 69.8092 108.383 72.0542 111.73 74.9743C115.148 78.0332 117.889 81.6987 119.954 85.971C122.306 90.4611 123.586 95.1947 123.802 100.176C123.943 101.385 123.838 102.955 123.481 104.878L127.967 103.81C127.896 102.524 128.146 100.819 128.717 98.6829C129.499 95.9039 130.603 92.9838 132.028 89.9249C138.934 75.7518 145.556 64.3621 151.893 55.7472C156.095 50.189 160.224 45.6349 164.283 42.0761C169.469 37.5839 174.703 34.6254 179.973 33.2027ZM194.605 41.1085C190.403 39.5406 186.167 39.3974 181.895 40.6791C178.05 41.7472 173.885 44.2763 169.399 48.2644C165.838 51.3233 162.136 55.4909 158.291 60.7606C152.594 68.5916 146.329 79.4857 139.493 93.4409C137.998 96.5746 136.43 99.281 134.794 101.56C134.367 102.133 133.976 102.667 133.619 103.162L136.61 103.271C142.02 103.485 147.252 104.269 152.31 105.621C158.648 104.339 164.165 103.056 168.865 101.774C178.477 98.9991 186.915 95.8291 194.178 92.2703C200.161 89.3503 205.074 86.2166 208.917 82.8715C214.898 77.5312 217.602 72.1525 217.034 66.7417C216.82 63.8259 215.609 60.5833 213.403 57.0246C211.839 54.5296 209.169 51.4707 205.392 47.8372C201.618 44.5604 198.023 42.3196 194.605 41.1085ZM134.365 127.834C132.656 129.328 131.09 130.859 129.667 132.423L126.463 135.736C124.327 138.227 122.902 139.436 122.191 139.365C122.048 139.365 121.975 139.01 121.975 138.297C122.046 137.229 122.402 135.627 123.043 133.491C123.4 132.568 124.111 131.071 125.179 129.005C126.463 126.939 127.886 124.946 129.452 123.026C131.731 120.247 135.646 116.547 141.2 111.916L126.568 110.957C124.289 110.743 121.264 110.457 117.489 110.103C116.778 109.389 116.278 108.005 115.994 105.939L115.567 100.599C115.426 96.8224 114.462 93.1568 112.683 89.5981C111.045 86.3234 108.874 83.4034 106.168 80.84C103.534 78.486 100.719 76.743 97.7304 75.6044C94.5967 74.5364 91.6062 74.1818 88.7587 74.5364C83.7752 75.1089 79.2872 78.0246 75.3013 83.2944C73.5924 85.501 72.2744 87.7119 71.3473 89.9206C70.5655 91.9115 70.0657 94.227 69.8542 96.863C69.2817 104.908 71.9198 112.204 77.7556 118.758C81.8869 123.385 86.5158 126.339 91.6403 127.619C95.1307 128.546 98.5827 128.582 102.003 127.728L105.1 127.194L105.525 131.252C108.088 138.729 112.254 146.989 118.023 156.031C123.72 164.646 129.879 172.406 136.499 179.315C139.348 182.16 141.982 184.655 144.402 186.791C144.545 184.939 144.759 183.446 145.043 182.305C146.327 176.676 149.279 170.732 153.908 164.464C157.253 159.838 160.957 155.886 165.016 152.611C171.424 147.412 177.869 143.926 184.347 142.144C184.918 142.003 185.522 141.931 186.163 141.931C185.452 140.363 184.847 139.19 184.347 138.406C182.425 134.706 179.934 131.284 176.871 128.151C176.017 128.368 174.842 128.614 173.346 128.902C167.936 129.753 162.775 131.857 157.86 135.202C154.942 137.124 151.667 139.867 148.034 143.426C145.756 145.776 142.409 149.975 137.994 156.029C136.285 158.661 135.005 160.442 134.149 161.369L133.188 162.224C133.047 162.083 132.974 161.651 132.974 160.942C132.974 159.231 133.438 156.954 134.36 154.104C136.355 148.693 139.205 143.637 142.905 138.938C145.968 135.02 149.456 131.602 153.372 128.682C158.285 125.265 163.234 122.808 168.218 121.315C163.375 118.181 157.821 115.725 151.556 113.948L151.34 114.052C149.063 115.904 145.786 118.538 141.514 121.958C138.175 124.592 135.789 126.548 134.365 127.834ZM186.488 150.046C181.218 151.473 175.666 154.318 169.826 158.59C165.911 161.794 162.35 165.216 159.146 168.845C154.658 174.115 151.276 179.101 148.999 183.798L146.756 188.07L146.647 188.604C146.933 188.889 148.499 190.027 151.347 192.022C154.694 194.229 157.825 195.94 160.746 197.149C164.802 198.789 168.363 199.499 171.426 199.285C175.483 198.93 178.939 197.503 181.786 195.013C184.634 192.663 186.879 189.138 188.515 184.441C191.503 175.967 191.967 165.891 189.901 154.215L188.515 148.875C187.947 149.441 187.272 149.834 186.488 150.046ZM107.238 143.001C105.884 139.367 104.886 135.917 104.248 132.641C102.112 134.847 98.4801 137.158 93.3535 139.583C79.7529 146.205 68.7883 152.504 60.4575 158.488C55.1877 162.546 51.0223 166.248 47.9612 169.593C44.1846 174.006 41.7302 178.208 40.5917 182.196C39.3079 186.609 39.4873 190.85 41.1257 194.904C42.2642 198.253 44.5071 201.846 47.8523 205.693C51.5542 209.54 54.6537 212.243 57.1465 213.813C60.5643 215.949 63.8389 217.121 66.9726 217.333C70.1062 217.403 73.0626 216.624 75.8374 214.983C78.2576 213.561 80.6437 211.529 82.9934 208.895C86.4133 204.694 89.5085 199.746 92.2876 194.052C95.7758 186.93 98.9437 178.526 101.791 168.843C103.998 160.513 105.816 151.968 107.24 143.21V143.001H107.238Z" fill="#D80C9C"/>
</svg>

<svg xmlns="http://www.w3.org/2000/svg" width="256" height="256" fill="none"><path fill="#282828" d="M196 0H60C26.863 0 0 26.863 0 60v136c0 33.137 26.863 60 60 60h136c33.137 0 60-26.863 60-60V60c0-33.137-26.863-60-60-60"/><path fill="#D80C9C" fill-rule="evenodd" d="M179.973 33.203c5.91-1.852 11.712-1.564 17.407.854 4.272 1.564 8.653 4.381 13.137 8.436q5.66 5.448 9.185 10.894 4.166 7.268 4.272 13.35c.216 4.418-.925 8.615-3.417 12.604q-2.67 4.382-7.797 8.544-6.407 5.127-16.448 9.721-11.32 4.806-26.702 8.224a208 208 0 0 1-10.787 1.923c7.192 2.561 13.707 6.195 19.545 10.894q7.905 6.515 13.135 16.13a57.5 57.5 0 0 1 6.09 18.261q3.205 19.763-2.136 34.287-1.603 4.163-3.631 7.156c3.915 4.202 6.372 7.617 7.369 10.255q.747 2.241.107 2.987-.747.644-2.99-.214c-2.561-.854-5.875-3.166-9.931-6.942l-.32.213q-3.525 2.778-7.05 3.847-3.95 1.389-7.476 1.494c-4.202.07-8.758-.923-13.671-2.987q-5.017-2.246-10.465-6.194-7.263-5.235-15.273-14.099a153 153 0 0 1-17.73-24.994q-2.883-5.126-5.767-11.64-.001 9.4-2.989 23.818-3.31 14.845-8.33 26.592-4.272 9.825-9.72 16.555-3.739 4.698-8.544 7.585c-3.916 2.561-8.188 3.738-12.817 3.52q-6.514-.533-13.032-4.588-4.166-2.352-10.894-9.187-6.196-6.94-8.438-13.242-3.309-8.443-.748-17.409 2.03-7.48 9.079-15.596 5.34-6.087 13.669-12.283c8.474-6.267 19.797-12.85 33.964-19.759l1.175-.638h-.319q-9.185-1.39-17.088-8.974-4.7-5.019-7.586-10.785-3.525-8.119-3.095-15.487l.107-.854q-4.273-2.885-8.865-2.137c-.284-.07-.604-.038-.961.105-.641.218-.998.32-1.068.32l-1.71.43c-.283.14-1.138.534-2.562 1.173q-1.602 1.068-2.777 1.281l-.853.11q-.215-.212-.215-.855c0-.855.356-2.027 1.068-3.525a22 22 0 0 1 2.352-2.775c.07-.07.747-.572 2.027-1.497a18 18 0 0 1 1.283-.748q.855-.532 1.496-.638 2.669-.75 3.738-.855h4.272q2.458.425 4.486 1.282 1.175-3.311 4.7-8.436c2.206-3.063 4.663-5.558 7.369-7.476q2.562-1.819 4.163-2.457-1.067-3.954.216-7.796 1.066-3.95 3.631-6.518c2.277-2.42 4.843-3.7 7.69-3.843q2.137-.106 3.418.64l.534.533-.425.752q-.214.32-2.136 1.816-2.884 2.776-3.738 4.486c-1.64 2.56-2.1 5.16-1.389 7.797q5.981-.645 12.069 1.602 5.874 2.346 10.894 6.728 5.127 4.59 8.224 10.997 3.526 6.734 3.848 14.205.213 1.816-.321 4.702l4.486-1.068c-.071-1.286.179-2.991.75-5.127q1.173-4.17 3.311-8.758 10.36-21.257 19.865-34.178 6.302-8.335 12.39-13.67c5.186-4.493 10.42-7.452 15.69-8.874m14.632 7.905q-6.303-2.35-12.71-.429-5.767 1.602-12.496 7.585-5.341 4.591-11.108 12.497-8.545 11.746-18.798 32.68-2.244 4.7-4.699 8.119-.64.86-1.175 1.602l2.991.109q8.114.322 15.7 2.35 9.506-1.923 16.555-3.847 14.418-4.164 25.313-9.504 8.974-4.38 14.739-9.398c5.981-5.34 8.685-10.72 8.117-16.13-.214-2.916-1.425-6.159-3.631-9.717-1.564-2.495-4.234-5.554-8.011-9.188-3.774-3.277-7.369-5.517-10.787-6.729m-60.24 86.726a58 58 0 0 0-4.698 4.589l-3.204 3.313q-3.205 3.736-4.272 3.629-.215 0-.216-1.068.107-1.602 1.068-4.806.535-1.386 2.136-4.486a57 57 0 0 1 4.273-5.979c2.279-2.779 6.194-6.479 11.748-11.11l-14.632-.959-9.079-.854c-.711-.714-1.211-2.098-1.495-4.164l-.427-5.34q-.214-5.664-2.884-11a31.2 31.2 0 0 0-6.515-8.759q-3.953-3.53-8.438-5.236-4.7-1.6-8.971-1.068c-4.984.573-9.472 3.489-13.458 8.758q-2.564 3.312-3.954 6.627-1.173 2.987-1.493 6.942c-.572 8.045 2.066 15.341 7.902 21.895q6.197 6.94 13.884 8.861 5.234 1.39 10.363.109l3.097-.534.425 4.058q3.844 11.216 12.498 24.779 8.546 12.922 18.476 23.284c2.849 2.845 5.483 5.34 7.903 7.476q.215-2.776.641-4.486c1.284-5.629 4.236-11.573 8.865-17.841q5.019-6.94 11.108-11.853c6.408-5.199 12.853-8.685 19.331-10.467a7.5 7.5 0 0 1 1.816-.213q-1.066-2.35-1.816-3.525c-1.922-3.7-4.413-7.122-7.476-10.255-.854.217-2.029.463-3.525.751-5.41.851-10.571 2.955-15.486 6.3q-4.377 2.884-9.826 8.224-3.417 3.524-10.04 12.603-2.562 3.949-3.845 5.34l-.961.855c-.141-.141-.214-.573-.214-1.282q.001-2.565 1.386-6.838 2.994-8.117 8.545-15.166a55 55 0 0 1 10.467-10.256q7.37-5.126 14.846-7.367-7.264-4.701-16.662-7.367l-.216.104a1789 1789 0 0 1-9.826 7.906c-3.339 2.634-5.725 4.59-7.149 5.876m52.123 22.212c-5.27 1.427-10.822 4.272-16.662 8.544a91.6 91.6 0 0 0-10.68 10.255q-6.732 7.906-10.147 14.953l-2.243 4.272-.109.534q.428.426 4.7 3.418 5.019 3.312 9.399 5.127 6.085 2.458 10.68 2.136c4.057-.355 7.513-1.782 10.36-4.272q4.274-3.526 6.729-10.572 4.484-12.711 1.386-30.226l-1.386-5.34a4.5 4.5 0 0 1-2.027 1.171m-79.25-7.045c-1.354-3.634-2.352-7.084-2.99-10.36-2.136 2.206-5.768 4.517-10.895 6.942q-20.4 9.931-32.895 18.905-7.905 6.087-12.497 11.105c-3.776 4.413-6.23 8.615-7.37 12.603-1.283 4.413-1.104 8.654.535 12.708 1.138 3.349 3.381 6.942 6.726 10.789 3.702 3.847 6.802 6.55 9.295 8.12q5.125 3.203 9.826 3.52c3.133.07 6.09-.709 8.864-2.35q3.631-2.135 7.156-6.088 5.128-6.302 9.295-14.843 5.232-10.684 9.503-25.209a268 268 0 0 0 5.449-25.633v-.209z" clip-rule="evenodd"/></svg>
